X: 261
T: Jimmy's Return
R: reel
M: 4/4
L: 1/8
K:Bmin
"Bm"f2Bc dfed|"A"cAce aece|"Bm"f2Bc dfed|"A"cdec "Bm" dB B2|
"Bm"f2Bc dfed|"A"cAce aecA|"Bm"BcdB "A"cdeg |"D"fgec "Bm"dBB2 :|
"Bm"B2ba "D"f2ed|"A"cAce aecA|"Bm"B2ba "D"faed|"A" cdec "Bm"dBBA|
"Bm"B2ba "D"f2ed|"A" cAce aecA|"Bm"BcdB "A" cdeg|"D"fgec "Bm"dBBA:|


